X: 31271
T: Paddy Hayes'
R: reel
M: 4/4
K: Gmajor
|:GA|BddB defa|gedB AGED|GEDB, DEGB|dBGB A/B/A B/c/d|
eage dged|B2 dB AGEB,|DEGB eBdB|AcFA G2:|
|:GA|BABd gedc|BcdB AFDA|FD E/F/G AdcA|BG A/B/c defa|
gbag f/g/a gf|e/f/g fd edcA|FGAB cAdc|AG F/G/A G2:|

